X: 730
T: Fan tewu
L: 1/8
M: 2/4
K: A
z B [I:setbarnb 1]| 
B2e d | 
cB2e | 
B2A2- | 
A> A G F | 
B2c B | 
A G F C | 
E4 | 
B A G F | 
E FA2 | 
B A G F | 
A G F C | 
E4 | 
B A G F | 
E FA2 | 
B A G F | 
E FA2 | 
B B z c | 
A B c e | 
c F A G | 
F CE2- | 
E2 |]

@@@ Tune index: 9604
